src/pos-icons/fridge-top.svg

<svg height="24" viewBox="0 0 24 24" width="24" xmlns="http://www.w3.org/2000/svg"><path d="m8 8v-2h2v2zm-1-6h10a2 2 0 0 1 2 2v15a2 2 0 0 1 -2 2v1h-2v-1h-6v1h-2v-1a2 2 0 0 1 -2-2v-15a2 2 0 0 1 2-2m0 2v5h10v-5zm1 8v3h2v-3z"/></svg>

<?xml version="1.0" encoding="UTF-8"?><!DOCTYPE svg PUBLIC "-//W3C//DTD SVG 1.1//EN" "http://www.w3.org/Graphics/SVG/1.1/DTD/svg11.dtd"><svg xmlns="http://www.w3.org/2000/svg" xmlns:xlink="http://www.w3.org/1999/xlink" version="1.1" id="mdi-fridge-top" width="24" height="24" viewBox="0 0 24 24"><path d="M8,8V6H10V8H8M7,2H17A2,2 0 0,1 19,4V19A2,2 0 0,1 17,21V22H15V21H9V22H7V21A2,2 0 0,1 5,19V4A2,2 0 0,1 7,2M7,4V9H17V4H7M8,12V15H10V12H8Z" /></svg>
